X:1
T:Title
%%score 1 ( 2 3 )
L:1/8
Q:1/4=98
M:3/4
K:G
V:1 treble nm="Grand Piano, Soprano"
V:2 bass nm="Choir Pad, Bass"
V:3 bass 
V:1
 [DG]2 [DG][DG] [DG][FA] | [GB][GB] [GB]2 [FA]2 | [FA][FA] [FA][DG] [GB][DA] | [DG]4 z2 | %4
w: By~Frank~Monford~Graham * * * *||||
 [DG]2 [DG][DG] [DG][DG] | [GB][Gd] [Gd]2 [Ge]2 | [Ge][Ge] [Gd][DG] [GB][DA] | [DG]4 z2 | %8
w: ||||
 [Gd]3 [Gd] [Ge][Gd] | [GB]3 [DG]3 | [EG]3 [EG] [DF][CE] | [B,D]3 [DG]3 | [EG]3 [EG] [EG][EA] | %13
w: |||||
 [^DB]3 [DB]3 | [EA]3 [EA] [EB][E^c] | [Dd]6 | [Gd]3 [Gd] [Ge][Gd] | [GB]3 [DG]3 | %18
w: |||||
 [EG]3 [EG] [DF][B,E] | [B,D]3 [DG]3 | [DG]3 [DG] [FA][GB] | [Gd]3 [Gd]3 | [Fd]3 [Fc] [GB][DA] | %23
w: |||||
 [DG]6- | [DG]2 z2 z2 |] %25
w: ||
V:2
 [G,B,]2 [G,B,][G,B,] [G,B,][G,C] | [G,D][G,D] [G,D]2 [D,D]2 | [D,D][D,D] [D,D][D,B,] [D,D][D,C] | %3
 [G,B,]4 z2 | [G,B,]2 [G,B,][G,B,] [G,B,][G,B,] | [G,D][G,B,] [G,B,]2 [C,C]2 | %6
 [C,C][C,C] [G,B,][G,B,] [D,D][D,C] | [G,B,]4 z2 | [G,B,]3 [G,B,] [G,C][G,B,] | [G,D]3 [G,B,]3 | %10
 [C,C]3 [C,C]2 [C,G,] | G,3 B,3 | [E,B,]3 [E,B,] [E,G,][C,G,] | [B,,F,]3 [B,,F,]3 | %14
 [A,,G,]3 [A,,G,] [A,,G,][A,,G,] | [D,F,]6 | [G,B,]3 [G,B,] [G,C][G,B,] | [G,D]3 [G,B,]3 | %18
 [C,C]3 [C,C] [C,C][C,G,] | G,3 B,3 | [G,B,]3 [G,B,] [G,C][G,D] | [G,B,]3 [G,B,]3 | %22
 [D,C]3 [D,D] [D,D][D,C] | [G,B,]6- | [G,B,]2 z2 z2 |] %25
V:3
 x6 | x6 | x6 | x6 | x6 | x6 | x6 | x6 | x6 | x6 | x6 | G,,6 | x6 | x6 | x6 | x6 | x6 | x6 | x6 | %19
 G,,6 | x6 | x6 | x6 | x6 | x6 |] %25

